!!!!SEGMENT: pl-gd--ee-1638--003-015_marenzio-luca--madrigali-a-quatro-voci-ahi-dispietata-morte.krn
!!!cenid: 15xx:989
!!!COM: Marenzio, Luca
!!!COM-rismID: pe30003955
!!!CDT: ~1553-1599/08/22
!!!CNT: Italian
!!!GTL: Madrigali a quatro voci
!!!OTL: Ahi dispietata morte
!!!OMV: 015
!!!PDT: 1587
!!!AGN:
!!!SMS-siglum: PL-GD
!!!SMS-shelfmark: Ee 1638
!!!SMS-shelfwork: 003-015 G
!!!SMS-variant:
!!!SMS-altvar:
!!!NIFC-rismSourceID: 1001202747
!!!NIFC-rismChildID: 990039322
!!!NIFC-islandoraID: pl-gd:57883
!!!URL-pdf-islandora: https://repozytorium.nifc.pl/islandora/object/pl-gd%3A57883/datastream/PDF/view
!!!URL-scan: https://polish.musicsources.pl/pl/lokalizacje/galeria/klocki-introligatorskie/655 @EN{Scan on Polish Music Sources Website} @PL{Skany w portalu Dziedzictwo Muzyki Polskiej w otwartym dostępie}
!!!ONB-nifc: UWAGA: zbiór na stronach: Canto: s. 637-653, Alto: s. do 486-501, Tenore: s. do 334-349, Bassus: s. do 182-197. Uwaga: utwory podzielone wg tytułów w spisach treści dostępnych na końcu każdej księgi głosowej.
!!!AIN: 1 alto 1 bass 1 soprn 1 tenor
!!!key: a:aeo
**kern	**text	**mod-text	**kern	**text	**mod-text	**kern	**text	**mod-text	**kern	**text	**mod-text
*part4	*part4	*part4	*part3	*part3	*part3	*part2	*part2	*part2	*part1	*part1	*part1
*staff4	*staff4	*staff4	*staff3	*staff3	*staff3	*staff2	*staff2	*staff2	*staff1	*staff1	*staff1
*I"BASSO	*	*	*I"TENORE	*	*	*I"ALTO	*	*	*I"CANTO	*	*
*mI"Basso	*	*	*mI"Tenore	*	*	*mI"Alto	*	*	*mI"Soprano	*	*
*I'B	*	*	*I'T	*	*	*I'A	*	*	*I'S	*	*
*ICvox	*	*	*ICvox	*	*	*ICvox	*	*	*ICvox	*	*
*Ibass	*	*	*Itenor	*	*	*Ialto	*	*	*Isoprn	*	*
*clefF4	*	*	*clefC4	*	*	*clefC3	*	*	*clefC1	*	*
*mclefF4	*	*	*mclefGv2	*	*	*mclefG2	*	*	*mclefG2	*	*
*k[]	*	*	*k[]	*	*	*k[]	*	*	*k[]	*	*
*a:aeo	*	*	*a:aeo	*	*	*a:aeo	*	*	*a:aeo	*	*
*M2/1	*	*	*M2/1	*	*	*M2/1	*	*	*M2/1	*	*
*met(C|)	*	*	*met(C|)	*	*	*met(C|)	*	*	*met(C|)	*	*
=1-	=1-	=1-	=1-	=1-	=1-	=1-	=1-	=1-	=1-	=1-	=1-
*xywh-pl-gd--ee1638-8o--0189:4666,1770,3361,676	*	*	*xywh-pl-gd--ee1638-8o--0341:4679,1783,3328,659	*	*	*xywh-pl-gd--ee1638-8o--0493:4570,2341,3448,647	*	*	*xywh-pl-gd--ee1638-8o--0645:4610,1765,3358,667	*	*
1r	.	.	1r	.	.	1r	.	.	0e	AHi	Ahi,
0E	AHi	Ahi,	0G#X	AHi	Ahi,	0B	AHi	Ahi,	.	.	.
=2-	=2-	=2-	=2-	=2-	=2-	=2-	=2-	=2-	=2-	=2-	=2-
.	.	.	.	.	.	.	.	.	2r	.	.
.	.	.	.	.	.	.	.	.	1ee\	diſ-	diſ-
1r	.	.	1.A	diſ-	diſ-	1.c	diſ-	diſ-	.	.	.
.	.	.	.	.	.	.	.	.	2dd\	-pie-	-pie-
=3-	=3-	=3-	=3-	=3-	=3-	=3-	=3-	=3-	=3-	=3-	=3-
1.A	diſ-	diſ-	.	.	.	.	.	.	1.cc	-ta-	-ta-
.	.	.	2B\	-pie-	-pie-	2d\	-pie-	-pie-	.	.	.
.	.	.	1c	-ta-	-ta-	1e	-ta-	-ta-	.	.	.
2G\	-pie-	-pie-	.	.	.	.	.	.	2b\	-ta	-ta
=4-	=4-	=4-	=4-	=4-	=4-	=4-	=4-	=4-	=4-	=4-	=4-
2F\	-ta-	-ta-	2d\	-ta	-ta	2A/	-ta	-ta	0a	mor-	mor-
2E\	-ta	-ta	1e\	mor-	mor-	1c\	mor-	mor-	.	.	.
1F	mor-	mor-	.	.	.	.	.	.	.	.	.
.	.	.	2d\	.	.	4B/	.	.	.	.	.
.	.	.	.	.	.	4A/	.	.	.	.	.
=5-	=5-	=5-	=5-	=5-	=5-	=5-	=5-	=5-	=5-	=5-	=5-
1E	-te	-te!	1e	-te	-te!	1B	-te	-te!	1g#X	-te	-te!
2r	.	.	1r	.	.	2r	.	.	1r	.	.
1C/	ahi	Ahi,	.	.	.	1e\	ahi	Ahi,	.	.	.
=6-	=6-	=6-	=6-	=6-	=6-	=6-	=6-	=6-	=6-	=6-	=6-
.	.	.	1.c	ahi	Ahi,	.	.	.	1.ee	ahi	Ahi,
4BB/	cru-	cru-	.	.	.	2f#X\	cru-	cru-	.	.	.
4AA/	-del	-del	.	.	.	.	.	.	.	.	.
0E	vi-	vi-	.	.	.	2g#X\	-del	-del	.	.	.
.	.	.	4B\	cru-	cru-	1a\	vi-	vi-	4dd\	cru-	cru-
.	.	.	4A/	-del	-del	.	.	.	4cc\	-del	-del
=7-	=7-	=7-	=7-	=7-	=7-	=7-	=7-	=7-	=7-	=7-	=7-
.	.	.	1B	vi-	vi-	.	.	.	1b	vi-	vi-
.	.	.	.	.	.	2g#X\	.	.	.	.	.
2AA/	ta	ta!	2A/	ta	ta!	2.a\	ta	ta!	2.cc\	-ta	-ta!
2.A\	L'u-	L'u-	2.c\	L'u-	L'u-	.	.	.	.	.	.
.	.	.	.	.	.	8gny\	.	.	4b\	.	.
.	.	.	.	.	.	8fny\	.	.	.	.	.
=8-	=8-	=8-	=8-	=8-	=8-	=8-	=8-	=8-	=8-	=8-	=8-
.	.	.	.	.	.	1e	.	.	1a	.	.
4A\	-na	-na	4c\	-na	-na	.	.	.	.	.	.
!LO:MO:mod=*null:null	!	!	!	!	!	!	!	!	!	!	!
*custos:G	*	*	*	*	*	*	*	*	*	*	*
!LO:LB:g=original	!	!	!	!	!	!	!	!	!	!	!
2A\	m'ha	m'ha	2c\	m'ha	m'ha	.	.	.	.	.	.
*xywh-pl-gd--ee1638-8o--0189:4624,2373,3465,603	*	*	*	*	*	*	*	*	*	*	*
2G\	poſ-	poſ-	2B\	poſt'	poſ-	1r	.	.	1r	.	.
2E\	-to in	-to in	2c\	in	to in	.	.	.	.	.	.
!	!	!	!	!	!	!	!	!	!LO:MO:mod=*null:null	!	!
*	*	*	*	*	*	*	*	*	*custos:dd	*	*
!	!	!	!	!	!	!	!	!	!LO:LB:g=original	!	!
=9-	=9-	=9-	=9-	=9-	=9-	=9-	=9-	=9-	=9-	=9-	=9-
*	*	*	*	*	*	*	*	*	*xywh-pl-gd--ee1638-8o--0645:4610,2397,3335,538	*	*
1F#X	dog-	dog-	1A	dog-	dog-	2r	.	.	2r	.	.
.	.	.	.	.	.	2.d\	L'u-	L'u-	2.dd\	L'u-	L'u-
1G	-lia	-lia	1B	-lia	-lia	.	.	.	.	.	.
.	.	.	.	.	.	4d\	-na	-na	4dd\	-na	-na
.	.	.	.	.	.	2d\	m'ha	m'ha	2dd\	m'ha	m'ha
!	!	!	!LO:MO:mod=*null:null	!	!	!LO:MO:mod=*null:null	!	!	!	!	!
*	*	*	*custos:d	*	*	*custos:e	*	*	*	*	*
!	!	!	!LO:LB:g=original	!	!	!LO:LB:g=original	!	!	!	!	!
=10-	=10-	=10-	=10-	=10-	=10-	=10-	=10-	=10-	=10-	=10-	=10-
*	*	*	*xywh-pl-gd--ee1638-8o--0341:4628,2339,3441,669	*	*	*xywh-pl-gd--ee1638-8o--0493:4559,2827,3413,717	*	*	*	*	*
1r	.	.	1r	.	.	2e\	poſt'	poſ-	2cc\	poſ-	poſ-
.	.	.	.	.	.	2f\	in	to in	2a\	-to in	-to in
2r	.	.	2r	.	.	1d	do-	do-	1b	do-	do-
2G\	&	E	2d\	Et	E	.	.	.	.	.	.
=11-	=11-	=11-	=11-	=11-	=11-	=11-	=11-	=11-	=11-	=11-	=11-
2.A\	mie	mie	2f\	mie	mie	1c	-glia	-glia	1cc	-glia	-glia
.	.	.	2e\	ſpe-	ſpe-	.	.	.	.	.	.
4G\	ſpe-	ſpe-	.	.	.	.	.	.	.	.	.
2Fny\	-ran-	-ran-	2d\	-ra(n)-	-ran-	1r	.	.	1r	.	.
2E\	-ze	-ze	2c\	-ze	-ze	.	.	.	.	.	.
=12-	=12-	=12-	=12-	=12-	=12-	=12-	=12-	=12-	=12-	=12-	=12-
2.F\	acer-	acer-	2.d\	acer-	acer-	2r	.	.	00r	.	.
.	.	.	.	.	.	2A/	ha	ha	.	.	.
4E\	-ba-	-ba-	4c\	-ba-	-ba-	.	.	.	.	.	.
2D/	-men-	-men-	2B\	-me(n)-	-men-	0d	ſpen-	ſpen-	.	.	.
2C/	-te ha	-t'ha	4A/	-te ha	-t'ha	.	.	.	.	.	.
.	.	.	2A/	ſpen-	ſpen-	.	.	.	.	.	.
=13-	=13-	=13-	=13-	=13-	=13-	=13-	=13-	=13-	=13-	=13-	=13-
1BB	ſpen	ſpen	.	.	.	.	.	.	.	.	.
.	.	.	8G#X/	.	.	.	.	.	.	.	.
.	.	.	8F#X/	.	.	.	.	.	.	.	.
.	.	.	2G#X/	.	.	.	.	.	.	.	.
2AA/	-te	-te:	2A/	-te	-te:	2c#X/	-te	-te:	.	.	.
2r	.	.	2r	.	.	2r	.	.	.	.	.
=14-	=14-	=14-	=14-	=14-	=14-	=14-	=14-	=14-	=14-	=14-	=14-
0r	.	.	1r	.	.	2r	.	.	2.a\	L'al-	L'al-
.	.	.	.	.	.	2.d\	L'al-	L'al-	.	.	.
.	.	.	.	.	.	.	.	.	4a\	-tra	-tra
.	.	.	2r	.	.	.	.	.	2b\	mi	mi
.	.	.	.	.	.	4d\	-tra	-tra	.	.	.
.	.	.	2.c\	L'al-	L'al-	2e\	mi	mi	2cc\	tien	tien
=15-	=15-	=15-	=15-	=15-	=15-	=15-	=15-	=15-	=15-	=15-	=15-
2.F\	L'al-	L'al-	.	.	.	1f	tien	tien	1r	.	.
.	.	.	4c\	-tra	-tra	.	.	.	.	.	.
.	.	.	2d\	mi	mi	.	.	.	.	.	.
4F\	-tra	-tra	.	.	.	.	.	.	.	.	.
2G\	mi	mi	2.e\	tie(n)	tien	2r	.	.	2r	.	.
*	*	*	*	*ij	*	*	*ij	*	*	*	*
2A\	tien	tien	.	.	.	2.e\	L'al-	L'al-	2.cc\	L'al-	L'al-
.	.	.	2A/	L'al-	L'al-	.	.	.	.	.	.
!LO:MO:mod=*null:null	!	!	!	!	!	!	!	!	!	!	!
*custos:AA	*	*	*	*	*	*	*	*	*	*	*
!LO:LB:g=original	!	!	!	!	!	!	!	!	!	!	!
=16-	=16-	=16-	=16-	=16-	=16-	=16-	=16-	=16-	=16-	=16-	=16-
*xywh-pl-gd--ee1638-8o--0189:4656,2873,3330,624	*	*	*	*	*	*	*	*	*	*	*
2AA/	quà	quà	.	.	.	.	.	.	.	.	.
.	.	.	4A/	-tra	-tra	4e\	-tra	-tra	4cc\	-tra	-tra
2GG/	giù	giù	2B\	mi	mi	2g\	mi	mi	2dd\	mi	mi
1r	.	.	2c\	tien	tien	1g	tien	tien	2ee\	tien	tien
*	*	*	*	*Xij	*	*	*	*	*	*	*
.	.	.	2E/	quà	quà	.	.	.	2e/	quà	quà
!	!	!	!LO:MO:mod=*null:null	!	!	!	!	!	!	!	!
*	*	*	*custos:C	*	*	*	*Xij	*	*	*	*
!	!	!	!LO:LB:g=original	!	!	!	!	!	!	!	!
=17-	=17-	=17-	=17-	=17-	=17-	=17-	=17-	=17-	=17-	=17-	=17-
*	*	*	*xywh-pl-gd--ee1638-8o--0341:4617,2823,3524,741	*	*	*	*	*	*	*	*
2r	.	.	1C	giù	giù	1G	quà	quà	1e	giù	giù
1G\	con-	con-	.	.	.	.	.	.	.	.	.
.	.	.	1C	con-	con-	2E/	giù	giù	1.c	co(n)-	con-
1F\	-tra	-tra	.	.	.	1A/	co(n)-	con-	.	.	.
=18-	=18-	=18-	=18-	=18-	=18-	=18-	=18-	=18-	=18-	=18-	=18-
.	.	.	1.C	-tra	-tra	.	.	.	.	.	.
2E\	mia	mia	.	.	.	2G/	-tra	-tra	1gny\	-tra	-tra
1.A	vo-	vo-	.	.	.	1cny	mia	mia	.	.	.
.	.	.	2D/	mia	mia	.	.	.	2f/	mia	mia
!	!	!	!	!	!	!	!	!	!LO:MO:mod=*null:null	!	!
*	*	*	*	*	*	*	*	*	*custos:e	*	*
!	!	!	!	!	!	!	!	!	!LO:LB:g=original	!	!
=19-	=19-	=19-	=19-	=19-	=19-	=19-	=19-	=19-	=19-	=19-	=19-
*	*	*	*	*	*	*	*	*	*xywh-pl-gd--ee1638-8o--0645:4563,2865,3510,678	*	*
.	.	.	1E	vo-	vo-	0B	vo-	vo-	0e	vo-	vo-
4G#X\	.	.	.	.	.	.	.	.	.	.	.
4F#X\	.	.	.	.	.	.	.	.	.	.	.
1G#X	.	.	1E	-glia	-glia	.	.	.	.	.	.
!	!	!	!	!	!	!LO:MO:mod=*null:null	!	!	!	!	!
*	*	*	*	*	*	*custos:c	*	*	*	*	*
!	!	!	!	!	!	!LO:LB:g=original	!	!	!	!	!
=20-	=20-	=20-	=20-	=20-	=20-	=20-	=20-	=20-	=20-	=20-	=20-
*	*	*	*	*	*	*xywh-pl-gd--ee1638-8o--0493:4582,3382,3286,636	*	*	*	*	*
2A\	-glia	-glia	2r	.	.	4c/	-glia	-glia	1e	-glia	-glia
.	.	.	.	.	.	4A/	Et	E	.	.	.
2AA/	Et	E	1A/	Et	E	2.c/	lei	lei	.	.	.
2.C/	lei	lei	.	.	.	.	.	.	2r	.	.
.	.	.	.	.	.	4d\	che	che	.	.	.
.	.	.	2.Gny/	lei	lei	4e\	ſe	ſe	1g\	Et	E
4D/	che	che	.	.	.	4f\	n'è	n'è	.	.	.
=21-	=21-	=21-	=21-	=21-	=21-	=21-	=21-	=21-	=21-	=21-	=21-
4E\	ſe	ſe	.	.	.	2g\	gi-	gi-	.	.	.
4Fny\	n'è	n'è	4A/	che	che	.	.	.	.	.	.
2Gny\	gi-	gi-	4B\	ſe	ſe	2g\	-ta	-ta	4d/	lei	lei
.	.	.	4c\	n'è	n'è	.	.	.	4e/	che	che
4D/	-ta	-ta	2d\	gi-	gi-	1r	.	.	4f/	ſe	ſe
4E\	Se-	se-	.	.	.	.	.	.	4g/	n'è	n'è
4F\	-guir	-guir	4A/	-ta	-ta	.	.	.	2a\	gi-	gi-
4G\	non	non	4B\	Se-	se-	.	.	.	.	.	.
!LO:MO:mod=*null:null	!	!	!	!	!	!	!	!	!	!	!
*custos:A	*	*	*	*	*	*	*	*	*	*	*
!LO:LB:g=original	!	!	!	!	!	!	!	!	!	!	!
=22-	=22-	=22-	=22-	=22-	=22-	=22-	=22-	=22-	=22-	=22-	=22-
*xywh-pl-gd--ee1638-8o--0189:4593,3393,3434,666	*	*	*	*	*	*	*	*	*	*	*
2A\	poſ-	poſ-	4c\	-guir	-guir	2r	.	.	4e/	-ta	-ta
.	.	.	4d\	no(n)	non	.	.	.	4f/	Se-	se-
4E\	-ſo	-ſo	2e\	poſ-	poſ-	1B/	Et	Et	4.g/	-guir	-guir
4E\	Et	Et	.	.	.	.	.	.	.	.	.
.	.	.	.	.	.	.	.	.	8a\	no(n)	non
4G\	lei	lei	2d\	-ſo	-ſo	.	.	.	1b	poſ-	poſ-
4A\	che	che	.	.	.	.	.	.	.	.	.
4B\	ſe	ſe	2G/	Et	Et	4d\	lei	lei	.	.	.
4c\	n'è	n'è	.	.	.	4e\	che	che	.	.	.
=23-	=23-	=23-	=23-	=23-	=23-	=23-	=23-	=23-	=23-	=23-	=23-
2d\	gi-	gi-	4D/	lei	lei	4f\	ſe	ſe	1a	-ſo	-ſo
.	.	.	4E/	che	che	4g\	n'è	n'è	.	.	.
4D/	-ta	-ta	4Fny/	ſe	ſe	2a\	gi-	gi-	.	.	.
4E\	Se-	se-	4G/	n'è	n'è	.	.	.	.	.	.
!	!	!	!LO:MO:mod=*null:null	!	!	!	!	!	!	!	!
*	*	*	*custos:A	*	*	*	*	*	*	*	*
!	!	!	!LO:LB:g=original	!	!	!	!	!	!	!	!
*	*	*	*xywh-pl-gd--ee1638-8o--0341:4648,3452,3472,680	*	*	*	*	*	*	*	*
4F\	-guir	-guir	4A/	gi-	gi-	4a\	-ta	-ta	4r	.	.
4G\	no(n)	non	4E/	-ta	-ta	4g\	Se-	se-	4b\	Se-	se-
2A\	poſ-	poſ-	4r	.	.	4e\	-guir	-guir	4cc\	-gu-	-gu-
.	.	.	4c\	Se-	Se-	4f\	no(n)	non	4a\	-ir	-ir
=24-	=24-	=24-	=24-	=24-	=24-	=24-	=24-	=24-	=24-	=24-	=24-
1G	-ſo	-ſo	4d\	-guir	-guir	1g	poſ-	poſ-	4b\	no(n)	non
.	.	.	4e\	no(n)	non	.	.	.	2cc\	poſ-	poſ-
.	.	.	2d\	poſ-	poſ-	.	.	.	.	.	.
.	.	.	.	.	.	.	.	.	4b\	.	.
2r	.	.	1c	-ſo	-ſo	1e	-ſo	-ſo	2cc\	-ſo	-ſo
1C/	ch'el-	Ch'el-	.	.	.	.	.	.	1g\	ch'el-	Ch'el-
=25-	=25-	=25-	=25-	=25-	=25-	=25-	=25-	=25-	=25-	=25-	=25-
.	.	.	2.c\	ch'el-	Ch'el-	2.e\	ch'el-	Ch'el-	.	.	.
2AA/	la	la	.	.	.	.	.	.	2a\	-la	-la
.	.	.	4c\	la	la	4f\	la	la	.	.	.
!	!	!	!	!	!	!	!	!	!LO:MO:mod=*null:null	!	!
*	*	*	*	*	*	*	*	*	*custos:g	*	*
!	!	!	!	!	!	!	!	!	!LO:LB:g=original	!	!
*	*	*	*	*	*	*	*	*	*xywh-pl-gd--ee1638-8o--0645:4587,3369,3463,702	*	*
2C/	no'l	no'l	2c\	no'l	no'l	2e\	no'l	no'l	2g/	no'l	no'l
2D/	con-	con-	2A/	co(n)-	con-	2d\	co(n)-	con-	2f#X/	con-	con-
!	!	!	!	!	!	!LO:MO:mod=*null:null	!	!	!	!	!
*	*	*	*	*	*	*custos:d	*	*	*	*	*
!	!	!	!	!	!	!LO:LB:g=original	!	!	!	!	!
=26-	=26-	=26-	=26-	=26-	=26-	=26-	=26-	=26-	=26-	=26-	=26-
*	*	*	*	*	*	*xywh-pl-gd--ee1638-8o--0493:4536,3961,3448,671	*	*	*	*	*
1GG	ſen-	ſen-	1B-X	ſen-	ſen-	1d	ſen-	ſen-	1g	ſen-	ſen-
1AA	-te	-te:	1A	-te	-te:	0c#X	-te	-te:	0e	-te	-te:
=27-	=27-	=27-	=27-	=27-	=27-	=27-	=27-	=27-	=27-	=27-	=27-
1A	Ma	Ma	2r	.	.	.	.	.	.	.	.
.	.	.	1e\	Ma	Ma	.	.	.	.	.	.
2.G\	pur	pur	.	.	.	1r	.	.	1r	.	.
.	.	.	2.d\	pur	pur	.	.	.	.	.	.
4F#X\	ogn'	ogn-	.	.	.	.	.	.	.	.	.
!LO:MO:mod=*null:null	!	!	!	!	!	!	!	!	!	!	!
*custos:G	*	*	*	*	*	*	*	*	*	*	*
!LO:LB:g=original	!	!	!	!	!	!	!	!	!	!	!
=28-	=28-	=28-	=28-	=28-	=28-	=28-	=28-	=28-	=28-	=28-	=28-
*xywh-pl-gd--ee1638-8o--0189:4666,3997,3320,603	*	*	*	*	*	*	*	*	*	*	*
2G\	hor	-or	.	.	.	2r	.	.	1r	.	.
.	.	.	4Bny\	ogn'	ogn-	.	.	.	.	.	.
2E\	pre-	pre-	4c\	hor	-or	2e\	Nel	Nel	.	.	.
.	.	.	4B\	pre-	pre-	.	.	.	.	.	.
1Fny	-ſen-	-ſen-	1A	-se(n)-	-sen-	4.d\	me-	mez-	2r	.	.
.	.	.	.	.	.	8cny/	-zo	-zo	.	.	.
.	.	.	.	.	.	4d\	del	del	2a\	Nel	Nel
.	.	.	.	.	.	4d\	mio	mio	.	.	.
=29-	=29-	=29-	=29-	=29-	=29-	=29-	=29-	=29-	=29-	=29-	=29-
1E	-te	-te	2B\	-te	-te	1e	cor	cor	4.g/	mez-	mez-
.	.	.	.	.	.	.	.	.	8fny/	-zo	-zo
.	.	.	4r	.	.	.	.	.	4g/	del	del
.	.	.	4e\	Nel	Nel	.	.	.	4g/	mio	mio
1r	.	.	4.d\	me-	mez-	1r	.	.	1a	cor	cor
.	.	.	8c\	-zo	-zo	.	.	.	.	.	.
.	.	.	4d\	del	del	.	.	.	.	.	.
.	.	.	4d\	mio	mio	.	.	.	.	.	.
!	!	!	!LO:MO:mod=*null:null	!	!	!	!	!	!	!	!
*	*	*	*custos:e	*	*	*	*	*	*	*	*
!	!	!	!LO:LB:g=original	!	!	!	!	!	!	!	!
=30-	=30-	=30-	=30-	=30-	=30-	=30-	=30-	=30-	=30-	=30-	=30-
*	*	*	*xywh-pl-gd--ee1638-8o--0341:4597,3998,3400,607	*	*	*	*	*	*	*	*
2r	.	.	2e\	cor	cor	2r	.	.	1g	ma-	ma-
1C/	ma-	ma-	1c\	ma-	ma-	1e\	ma-	ma-	.	.	.
.	.	.	.	.	.	.	.	.	1g	-don-	-don-
1G\	-don-	-don-	2B\	-don-	-don-	1d\	-don-	-don-	.	.	.
=31-	=31-	=31-	=31-	=31-	=31-	=31-	=31-	=31-	=31-	=31-	=31-
.	.	.	2B\	-na	-na	.	.	.	1g	na	na
2G\	-na	-na	1c\	ſie-	ſie-	2e\	na	na	.	.	.
0F	ſie-	ſie-	.	.	.	0f	ſie-	ſie-	0dd	ſie-	ſie-
.	.	.	4B\	.	.	.	.	.	.	.	.
.	.	.	4A\	.	.	.	.	.	.	.	.
=32-	=32-	=32-	=32-	=32-	=32-	=32-	=32-	=32-	=32-	=32-	=32-
.	.	.	1B	.	.	.	.	.	.	.	.
0.C	de	de	2c\	de	de	0.e	de	de	1g	de	de
.	.	.	2G/	&	E	.	.	.	.	.	.
=33-	=33-	=33-	=33-	=33-	=33-	=33-	=33-	=33-	=33-	=33-	=33-
.	.	.	2A/	qual	qual	.	.	.	2r	.	.
.	.	.	2G/	è	è	.	.	.	2g/	&	E
.	.	.	2.c\	la	la	.	.	.	2a\	qual	qual
.	.	.	.	.	.	.	.	.	2g/	è	è
.	.	.	4B\	mia	mia	.	.	.	.	.	.
=34-	=34-	=34-	=34-	=34-	=34-	=34-	=34-	=34-	=34-	=34-	=34-
0r	.	.	2A/	ui-	vi-	2r	.	.	2.cc\	la	la
.	.	.	2G/	ta	ta	4r	.	.	.	.	.
.	.	.	.	.	.	4d\	Et	E	4b\	mia	mia
!	!	!	!	!	!	!	!	!	!LO:MO:mod=*null:null	!	!
*	*	*	*	*	*	*	*	*	*custos:a	*	*
!	!	!	!	!	!	!	!	!	!LO:LB:g=original	!	!
*	*	*	*	*	*	*	*	*	*xywh-pl-gd--ee1638-8o--0645:4563,3954,3475,655	*	*
.	.	.	1r	.	.	2f\	qual	qual	2a\	ui-	vi-
.	.	.	.	.	.	2e\	è	è	4g/	-ta	-ta
.	.	.	.	.	.	.	.	.	4c/	&	E
=35-	=35-	=35-	=35-	=35-	=35-	=35-	=35-	=35-	=35-	=35-	=35-
1A	el-	el-	1c	el-	el-	2.a\	la	la	2f/	qual	qual
.	.	.	.	.	.	.	.	.	2e/	è	è
.	.	.	.	.	.	4g\	mia	mia	.	.	.
2A\	-la	-la	2c\	-la	-la	2f\	ui-	vi-	2.a\	la	la
2A\	ſel	ſel	2c\	ſe'l	ſe'l	2e\	-ta	-ta	.	.	.
.	.	.	.	.	.	.	.	.	4g/	mia	mia
=36-	=36-	=36-	=36-	=36-	=36-	=36-	=36-	=36-	=36-	=36-	=36-
0B-X	ve-	ve-	0d	ve-	ve-	1r	.	.	2.f/	vi-	vi-
.	.	.	.	.	.	.	.	.	8e/	.	.
.	.	.	.	.	.	.	.	.	8d/	.	.
!	!	!	!	!	!	!LO:MO:mod=*null:null	!	!	!	!	!
*	*	*	*	*	*	*custos:d	*	*	*	*	*
!	!	!	!	!	!	!LO:LB:g=original	!	!	!	!	!
*	*	*	*	*	*	*xywh-pl-gd--ee1638-8o--0493:4570,4470,3413,925	*	*	*	*	*
.	.	.	.	.	.	2r	.	.	2f/	.	.
.	.	.	.	.	.	2d\	Et	Et	2g/	.	.
=37-	=37-	=37-	=37-	=37-	=37-	=37-	=37-	=37-	=37-	=37-	=37-
2A\	-de	-de	1c	-de	-de	2f\	qual	qual	0.a	-ta	-ta
2AA/	&	E	.	.	.	2e\	è	è	.	.	.
2D/	qual	qual	1r	.	.	2.f\	la	la	.	.	.
2C/	è	è	.	.	.	.	.	.	.	.	.
.	.	.	.	.	.	4e\	mia	mia	.	.	.
=38-	=38-	=38-	=38-	=38-	=38-	=38-	=38-	=38-	=38-	=38-	=38-
2.F\	la	la	1A	el-	el-	2d\	vi-	vi-	.	.	.
.	.	.	.	.	.	4c/	-ta	-ta	.	.	.
4E\	mia	mia	.	.	.	4c/	Et	Et	.	.	.
2D/	vi-	vi-	2A/	-la	-la	2f\	qual	qual	1r	.	.
4C/	-ta	-ta	2c\	ſe'l	ſe'l	2e\	è	è	.	.	.
4E\	&	E	.	.	.	.	.	.	.	.	.
!LO:MO:mod=*null:null	!	!	!LO:MO:mod=*null:null	!	!	!	!	!	!	!	!
*custos:F	*	*	*custos:c	*	*	*	*	*	*	*	*
!LO:LB:g=original	!	!	!LO:LB:g=original	!	!	!	!	!	!	!	!
=39-	=39-	=39-	=39-	=39-	=39-	=39-	=39-	=39-	=39-	=39-	=39-
*xywh-pl-gd--ee1638-8o--0189:4635,4424,3465,759	*	*	*xywh-pl-gd--ee1638-8o--0341:4659,4554,3544,721	*	*	*	*	*	*	*	*
2F\	qual	qual	1c	ve-	ve-	2.a\	-la	-la	1r	.	.
2E\	è	è	.	.	.	.	.	.	.	.	.
.	.	.	.	.	.	4g\	mia	mia	.	.	.
2.A\	la	la	1c	-de	-de	2f\	vi-	vi-	2r	.	.
.	.	.	.	.	.	2e\	-ta	-ta	2cc\	&	E
4G\	mia	mia	.	.	.	.	.	.	.	.	.
=40-	=40-	=40-	=40-	=40-	=40-	=40-	=40-	=40-	=40-	=40-	=40-
2F\	vi-	vi-	2r	.	.	1r	.	.	2a\	qual	qual
2E\	-ta	-ta	2B\	&	E	.	.	.	2g/	è	è
1r	.	.	2c\	qual	qual	1g	el-	el-	2.ee\	la	la
.	.	.	2B\	è	è	.	.	.	.	.	.
.	.	.	.	.	.	.	.	.	4dd\	mia	mia
=41-	=41-	=41-	=41-	=41-	=41-	=41-	=41-	=41-	=41-	=41-	=41-
00E	el-	el-	2.e\	la	la	1g	-la	-la	2cc\	vi-	vi-
.	.	.	.	.	.	.	.	.	2b\	-ta	-ta
.	.	.	4d\	mia	mia	.	.	.	.	.	.
.	.	.	2c\	vi-	vi-	1g	ſel	ſe'l	2r	.	.
.	.	.	2B\	-ta	-ta	.	.	.	2b\	&	E
!	!	!	!	!	!	!	!	!	!LO:MO:mod=*null:null	!	!
*	*	*	*	*	*	*	*	*	*custos cc	*	*
!	!	!	!	!	!	!	!	!	!LO:LB:g=original	!	!
=42-	=42-	=42-	=42-	=42-	=42-	=42-	=42-	=42-	=42-	=42-	=42-
*	*	*	*	*	*	*	*	*	*xywh-pl-gd--ee1638-8o--0645:4598,4527,3393,620	*	*
.	.	.	2r	.	.	0g	ve-	ve-	2cc\	qual	qual
.	.	.	2B\	&	E	.	.	.	2b\	è	è
.	.	.	2c\	qual	qual	.	.	.	2.ee\	la	la
.	.	.	2B\	è	è	.	.	.	.	.	.
.	.	.	.	.	.	.	.	.	4dd\	mia	mia
=43-	=43-	=43-	=43-	=43-	=43-	=43-	=43-	=43-	=43-	=43-	=43-
0E	-la	-la	2.e\	la	la	0G	-de	-de	2cc\	vi-	vi-
.	.	.	.	.	.	.	.	.	2b\	-ta	-ta
.	.	.	4d\	mia	mia	.	.	.	.	.	.
.	.	.	2c\	vi-	vi-	.	.	.	2r	.	.
.	.	.	2B\	-ta	-ta	.	.	.	1e/	el-	el-
=44-	=44-	=44-	=44-	=44-	=44-	=44-	=44-	=44-	=44-	=44-	=44-
0E	ſel	ſe'l	2r	.	.	1B	el-	el-	.	.	.
.	.	.	2.G#X/	el-	el-	.	.	.	2e/	-la	-la
.	.	.	.	.	.	2B/	-la	-la	1e	ſel	ſe'l
.	.	.	4G#/	-la	-la	.	.	.	.	.	.
.	.	.	2G#/	ſel	ſe'l	2B/	ſe'l	ſe'l	.	.	.
=45-	=45-	=45-	=45-	=45-	=45-	=45-	=45-	=45-	=45-	=45-	=45-
0AA	ve-	ve-	0A	ve-	ve-	0c	ve-	ve-	0e	ve-	ve-
=46-	=46-	=46-	=46-	=46-	=46-	=46-	=46-	=46-	=46-	=46-	=46-
0E\l	-de.	-de.	0G#X/l	-de.	-de.	0Bl	-de.	-de.	0el	-de.	-de.
!LO:TX:b:t=Mad. di Luca Marenzio Lib. I. à 4. P:mod=	!	!	!LO:TX:b:t=Mad. di Luca Marenzio Lib. I. à 4. G:mod=	!	!	!LO:TX:b:t=Mad. di Luca Marenzio Lib. I. à 4. L:mod=	!	!	!LO:TX:b:t=Mad. di Luca Marenzio Lib. I. à 4. C:mod=	!	!
==	==	==	==	==	==	==	==	==	==	==	==
*-	*-	*-	*-	*-	*-	*-	*-	*-	*-	*-	*-
!!!system-decoration: [(s1,s2,s3,s4)]
!!!RDF**kern: l = terminal long
!!!ENC: Marta Opryszak
!!!END: 2022-06-27
!!!ENC: Natalia Wrzos
!!!END: 2022-07-12
!!!YEC: Copyright 2022 Narodowy Instytut Fryderyka Chopina (https://polishscores.org)
!!!YEM: License CC-BY-4.0 (https://creativecommons.org/licenses/by/4.0)
!!!IIIF: https://repozytorium.nifc.pl/islandora/object/pl-gd%3A57883/datastream/IIIF/view
!!!ENC-iiif: Zuzanna Daniec
!!!END-iiif: 2022-09-10
!!!ENC-modern: Krzysztof Stępień
!!!END-modern: 2022-11-07
!!!filter-modern: shed -e "s/:t=P:/:T=P:/L"
!!!filter-modern: shed -e "s/-//B"
!!!filter-modern: shed -e "s/^(\d+[\/\\]right)/$1yy/I; s/^(\d+[\/\\]left)/$1yy/I"
!!!filter-modern: shed -e "s/yy//"
!!!filter-modern: shed -k -e "s/\(y(?!y)/(/"
!!!filter-modern: shed -k -e "s/([\(\)\[\]])[><]/$1/g"
!!!filter-modern: shed -k -e “s/([()[]_])[><]/$1/g”
!!!filter-modern: tie -s
!!!filter-modern: shed -e "s/^(X?)rep$/$1REP/I"
!!!filter-modern: shed -k -e "s/^(X?)tuplet/$1TUPLET/I"
!!!filter-modern: shed -e "s/LO:DY:(a|b|rj)/LO:dy:$1/L"
!!!filter-modern: shed -e "s/LO:HP:(a|b)/LO:hp:$1/L"
!!!filter-modern: shed -k -e "s/r[a-gA-G]+/r/D"
!!!filter-modern: shed -k -e "s/([^a-gA-Gn#-])[<>]/$1/g"
!!!filter-modern: sic -sq
!!!filter-modern: autostem -r
!!!filter-modern: modori -m
!!!filter-modern: humtr -p
